src/icons/person-stalker.svg

<?xml version="1.0" encoding="UTF-8"?>
<svg width="512px" height="512px" viewBox="0 0 512 512" version="1.1" xmlns="http://www.w3.org/2000/svg" xmlns:xlink="http://www.w3.org/1999/xlink">
    <!-- Generator: Sketch 62 (91390) - https://sketch.com -->
    <title>person-stalker</title>
    <desc>Created with Sketch.</desc>
    <g id="person-stalker" stroke="none" stroke-width="1" fill="none" fill-rule="evenodd">
        <path d="M337.7,141.65 C375.8,141.65 386.5,172.95 385.5,184.95 C384.7,194.55 384.4,198.75 383.9,203.45 C383.4,208.15 387.1,208.95 384.9,218.75 C380.8,237.45 379.2,229.65 377.3,241.45 C372.3,271.35 364.6,265.65 364.6,281.25 C364.6,305.55 362.5,300.25 397,313.35 C432.3,326.75 440.4,334.95 441.4,341.05 C442.7,348.85 442.7,415.95 442.7,415.95 L442.7,415.95 L361.2,415.95 C361.1,400.45 360.6,357.35 359.8,351.95 C358.6,343.95 359.8,327.35 314.4,310.05 C308.1,307.65 302.8,305.75 298.3,304.15 C313.3,297.15 310.7,292.45 310.7,281.25 C310.7,265.55 303,271.35 298.1,241.45 C296.2,229.75 294.6,237.55 290.5,218.75 C288.4,208.85 291.8,208.15 291.5,203.45 C291.2,198.85 290.6,194.65 289.9,184.95 C288.8,173.05 299.6,141.65 337.7,141.65 Z M204.8,96.05 C254.1,96.05 267.8,136.55 266.5,151.95 C265.534483,163.922414 264.941855,169.369263 264.362085,175.221147 L264.3,175.85 C263.7,181.95 268.4,182.85 265.6,195.55 C260.3,219.75 258.2,209.65 255.8,224.85 C249.5,263.25 239.5,250.05 239.5,270.35 C239.5,297.25 237.5,300.55 265.3,310.35 C269.9,312.05 275.1,313.95 281.4,316.25 C326.7,333.45 337.3,344.05 338.6,351.95 C339.4,357.15 339.9,375.05 340,390.55 C340.1,404.05 340.1,415.85 340.1,415.85 L340.1,415.85 L340.2,415.95 L69.5,415.95 C69.5,415.95 69.5,361.95 71.1,351.95 C72.4,344.05 83,333.45 128.1,316.35 C172.8,299.35 170,301.75 170,270.35 C170,250.05 160.1,263.25 153.8,224.85 C151.3,209.65 149.4,219.85 144,195.55 C141.1,182.85 145.9,181.95 145.3,175.85 C144.7,169.75 144.1,164.35 143.1,151.95 C141.8,136.45 155.5,96.05 204.8,96.05 Z" id="Combined-Shape" fill="#000000" fill-rule="nonzero"></path>
    </g>
</svg>

<svg xmlns="http://www.w3.org/2000/svg" width="512" height="512" viewBox="0 0 512 512">
    <path d="M337.7 141.65c38.1 0 48.8 31.3 47.8 43.3-.8 9.6-1.1 13.8-1.6 18.5-.5 4.7 3.2 5.5 1 15.3-4.1 18.7-5.7 10.9-7.6 22.7-5 29.9-12.7 24.2-12.7 39.8 0 24.3-2.1 19 32.4 32.1 35.3 13.4 43.4 21.6 44.4 27.7 1.3 7.8 1.3 74.9 1.3 74.9h-81.5c-.1-15.5-.6-58.6-1.4-64-1.2-8 0-24.6-45.4-41.9-6.3-2.4-11.6-4.3-16.1-5.9 15-7 12.4-11.7 12.4-22.9 0-15.7-7.7-9.9-12.6-39.8-1.9-11.7-3.5-3.9-7.6-22.7-2.1-9.9 1.3-10.6 1-15.3-.3-4.6-.9-8.8-1.6-18.5-1.1-11.9 9.7-43.3 47.8-43.3zm-132.9-45.6c49.3 0 63 40.5 61.7 55.9-.966 11.972-1.558 17.42-2.138 23.271l-.062.629c-.6 6.1 4.1 7 1.3 19.7-5.3 24.2-7.4 14.1-9.8 29.3-6.3 38.4-16.3 25.2-16.3 45.5 0 26.9-2 30.2 25.8 40 4.6 1.7 9.8 3.6 16.1 5.9 45.3 17.2 55.9 27.8 57.2 35.7.8 5.2 1.3 23.1 1.4 38.6.1 13.5.1 25.3.1 25.3l.1.1H69.5s0-54 1.6-64c1.3-7.9 11.9-18.5 57-35.6 44.7-17 41.9-14.6 41.9-46 0-20.3-9.9-7.1-16.2-45.5-2.5-15.2-4.4-5-9.8-29.3-2.9-12.7 1.9-13.6 1.3-19.7-.6-6.1-1.2-11.5-2.2-23.9-1.3-15.5 12.4-55.9 61.7-55.9z"/>
</svg>
